assets/img/graphic-half-circle.svg

<?xml version="1.0" encoding="UTF-8" standalone="no"?>
<svg width="54px" height="50px" viewBox="0 0 54 50" version="1.1" xmlns="http://www.w3.org/2000/svg" xmlns:xlink="http://www.w3.org/1999/xlink">
    <!-- Generator: Sketch 39.1 (31720) - http://www.bohemiancoding.com/sketch -->
    <title>Play 3A@2x Copy</title>
    <desc>Created with Sketch.</desc>
    <defs></defs>
    <g id="Page-1" stroke="none" stroke-width="1" fill="none" fill-rule="evenodd">
        <g id="Playbook-Splash" transform="translate(-130.000000, -763.000000)">
            <g id="Play-3A@2x-Copy" transform="translate(130.000000, 763.000000)">
                <g id="Play-3A@2x">
                    <g id="Layer_2">
                        <path d="M41.765,0.0606060606 L32.715,14.2979798 L31.715,14.6818182 L25.5,12.7575758 L15.31,11.1111111 L7.94,3.92929293 C0.0524026519,12.1379427 -1.8793856,24.4669448 3.11320485,34.7347228 C8.10579531,45.0025008 18.9462335,50.9950576 30.1992866,49.7078152 C41.4523397,48.4205728 50.6915598,40.1310937 53.2845408,28.9955984 C55.8775218,17.860103 51.2651503,6.27969062 41.76,0.0606060606 L41.765,0.0606060606 Z" id="Shape" fill="#E31C3D"></path>
                        <path d="M45.845,11.030303 C41.905,13.3636364 34.32,17.8686869 34.24,18.0252525 C34.16,18.1818182 36.08,25.1515152 36.08,25.1515152 L26.5,23.3232323 L27.03,14.9343434 L23.355,11.7626263 L20.585,7.2979798 C20.585,7.2979798 19.19,4.32323232 18.27,2.47979798 C9.87571137,6.2355055 4.67292004,14.8617356 5.21863657,24.1189638 C5.76435311,33.376192 11.9438244,41.3178104 20.7200319,44.0407598 C29.4962394,46.7637093 39.0237242,43.6954086 44.6200231,36.3438324 C50.2163219,28.9922562 50.7046463,18.9032923 45.845,11.0353535 L45.845,11.030303 Z" id="Shape" fill="#112E51"></path>
                        <path d="M27.035,22.2525253 L27.035,4.61616162 C17.1131427,4.69689765 9.12707975,12.8725776 9.18025854,22.8948369 C9.23343733,32.9170962 17.3058004,41.005839 27.2279445,40.9791435 C37.1500885,40.9524481 45.1796781,32.820383 45.18,22.7979798 L45.18,22.2626263 L27.035,22.2525253 Z" id="Shape" fill="#0071BC"></path>
                        <path d="M34.635,29.2070707 L34.905,26.6363636 L35.055,17.5454545 L28.25,14.5151515 L31.72,7.97979798 C24.4340062,5.70172249 16.5974713,9.17473955 13.3233499,16.1328759 C10.0492285,23.0910123 12.3314254,31.4220296 18.680919,35.6903478 C25.0304126,39.958666 33.5197266,38.8685782 38.61,33.1313131 L34.635,29.2070707 Z" id="Shape" fill="#02BFE7"></path>
                    </g>
                    <g id="Layer_6" transform="translate(17.000000, 12.121212)" fill="#FFFFFF">
                        <ellipse id="Oval" cx="10.185" cy="10.6666667" rx="10.11" ry="10.2121212"></ellipse>
                    </g>
                </g>
            </g>
        </g>
    </g>
</svg>

<svg width="54" height="50" xmlns="http://www.w3.org/2000/svg"><g fill="none" fill-rule="evenodd"><path d="M41.765.06l-9.05 14.238-1 .384-6.215-1.924-10.19-1.647L7.94 3.93C.052 12.138-1.88 24.467 3.113 34.735S18.946 50.995 30.2 49.708c11.253-1.287 20.493-9.577 23.086-20.712C55.878 17.86 51.265 6.28 41.76.06h.005z" fill="#E31C3D"/><path d="M45.845 11.03c-3.94 2.334-11.525 6.839-11.605 6.995-.08.157 1.84 7.127 1.84 7.127l-9.58-1.829.53-8.389-3.675-3.171-2.77-4.465S19.19 4.323 18.27 2.48C9.876 6.236 4.673 14.862 5.219 24.119c.545 9.257 6.725 17.199 15.501 19.922 8.776 2.723 18.304-.346 23.9-7.697 5.596-7.352 6.085-17.44 1.225-25.309v-.005z" fill="#112E51"/><path d="M27.035 22.253V4.616c-9.922.08-17.908 8.257-17.855 18.279.053 10.022 8.126 18.11 18.048 18.084 9.922-.027 17.952-8.159 17.952-18.181v-.535l-18.145-.01z" fill="#0071BC"/><path d="M34.635 29.207l.27-2.57.15-9.092-6.805-3.03 3.47-6.535c-7.286-2.278-15.123 1.195-18.397 8.153-3.274 6.958-.992 15.289 5.358 19.557 6.35 4.269 14.839 3.179 19.929-2.559l-3.975-3.924z" fill="#02BFE7"/><ellipse cx="10.185" cy="10.667" rx="10.11" ry="10.212" transform="translate(17 12.121)" fill="#FFF"/></g></svg>
